src/icons/stats-bars.svg

<svg xmlns="http://www.w3.org/2000/svg" width="512" height="512" viewBox="0 0 512 512">
    <path d="M183.3 104h58.2v290.9h-58.2V104zM96 307.6h58.2v87.3H96v-87.3zm174.5-58.1h58.2V395h-58.2V249.5zm87.3-58.2H416v203.6h-58.2V191.3z"/>
</svg>

<?xml version="1.0" encoding="UTF-8"?>
<svg width="512px" height="512px" viewBox="0 0 512 512" version="1.1" xmlns="http://www.w3.org/2000/svg" xmlns:xlink="http://www.w3.org/1999/xlink">
    <!-- Generator: Sketch 62 (91390) - https://sketch.com -->
    <title>stats-bars</title>
    <desc>Created with Sketch.</desc>
    <g id="stats-bars" stroke="none" stroke-width="1" fill="none" fill-rule="evenodd">
        <path d="M183.3,104 L241.5,104 L241.5,394.9 L183.3,394.9 L183.3,104 Z M96,307.6 L154.2,307.6 L154.2,394.9 L96,394.9 L96,307.6 L96,307.6 Z M270.5,249.5 L328.7,249.5 L328.7,395 L270.5,395 L270.5,249.5 Z M357.8,191.3 L416,191.3 L416,394.9 L357.8,394.9 L357.8,191.3 Z" id="Shape" fill="#000000" fill-rule="nonzero"></path>
    </g>
</svg>
